vendor/shopware/storefront/Resources/app/storefront/dist/assets/icon/default/lock-fingerprint.svg

<svg xmlns="http://www.w3.org/2000/svg" width="24" height="24" viewBox="0 0 24 24">
  <path fill="#758CA3" fill-rule="evenodd" d="M19.7885723,8.16408414 C19.6623806,7.62640942 19.9959536,7.08823937 20.5336283,6.96204769 C21.071303,6.83585602 21.609473,7.16942893 21.7356647,7.70710365 C21.9082691,8.44253256 21.997444,9.19927789 21.9999512,9.97001791 L22,14 C22,19.5228475 17.5228475,24 12,24 C10.517791,24 9.07942474,23.6766476 7.76472709,23.0611965 C7.26453706,22.8270419 7.04887276,22.2317379 7.28302738,21.7315479 C7.51718201,21.2313579 8.11248596,21.0156936 8.61267598,21.2498482 C9.66331468,21.7416851 10.8123753,22 12,22 C16.418278,22 20,18.418278 20,14.0000121 L19.9999565,9.97328981 C19.9979499,9.3577444 19.9265826,8.75211512 19.7885723,8.16408414 Z M11.9535526,5.99894043 C11.9381844,5.99999221 11.9227176,6.00069835 11.9071598,6.001051 C11.1881099,6.01734978 10.5016482,6.22331792 9.9023247,6.59333827 C9.43238935,6.88347482 8.81622934,6.73771909 8.5260928,6.26778374 C8.23595625,5.79784839 8.38171198,5.18168838 8.85164733,4.89155184 C9.75156026,4.33594854 10.7846346,4.02598166 11.8618373,4.0015646 C11.885049,4.00103846 11.9080938,4.00130755 11.9309458,4.00234696 C11.9537622,4.00079081 11.9767887,4 12,4 C14.0880332,4 15.9927271,5.07608879 17.0830506,6.81087674 C17.3769387,7.27847512 17.2361187,7.89578186 16.7685203,8.18966994 C16.3009219,8.48355802 15.6836152,8.342738 15.3897271,7.87513962 C14.6616783,6.71675829 13.3930049,6 12,6 C11.9844319,6 11.9689468,5.99964425 11.9535526,5.99894043 Z M5.26887884,18.3254481 C5.56793936,18.7897554 5.4339804,19.4085873 4.96967312,19.7076478 C4.50536584,20.0067083 3.88653397,19.8727493 3.58747345,19.4084421 C2.55675462,17.8081966 2,15.9440669 2,14 L2,11.1447106 C2,10.5924259 2.44771525,10.1447106 3,10.1447106 C3.55228475,10.1447106 4,10.5924259 4,11.1447106 L4,14 C4,15.5570613 4.44462089,17.045744 5.26887884,18.3254481 Z M16,11.3463314 C16,10.7940466 16.4477153,10.3463314 17,10.3463314 C17.5522847,10.3463314 18,10.7940466 18,11.3463314 L18,14 C18,14.9641136 17.7716402,15.8976162 17.3400636,16.7379492 C17.0877521,17.2292306 16.4849511,17.422954 15.9936697,17.1706426 C15.5023883,16.9183312 15.3086649,16.3155301 15.5609763,15.8242487 C15.8482024,15.2649842 16,14.6444568 16,14 L16,11.3463314 Z M13.1035606,17.8460981 C13.6345183,17.6941035 14.1881605,18.0013138 14.3401552,18.5322715 C14.4921498,19.0632292 14.1849395,19.6168714 13.6539817,19.768866 C13.1525559,19.9124067 12.6319852,19.9902507 12.0861115,19.9992818 C10.4630276,20.0001059 8.99695511,19.4163938 7.88164703,18.3634075 C7.48006403,17.9842643 7.46187294,17.3513607 7.8410161,16.9497777 C8.22015926,16.5481947 8.85306286,16.5300036 9.25464587,16.9091468 C9.9988955,17.6118089 10.9735049,17.9998464 12.0688189,17.9994228 C12.4230763,17.9934759 12.769901,17.9416131 13.1035606,17.8460981 Z M8,13.9610059 C8,14.5132907 7.55228475,14.9610059 7,14.9610059 C6.44771525,14.9610059 6,14.5132907 6,13.9610059 L6,10 C6,9.58030579 6.04324609,9.16556043 6.12835083,8.7606686 C6.24195389,8.220194 6.7721886,7.87414625 7.3126632,7.98774932 C7.85313779,8.10135238 8.19918554,8.63158709 8.08558248,9.17206168 C8.02887097,9.44187069 8,9.71875359 8,10 L8,13.9610059 Z M11,11 C11,10.4477153 11.4477153,10 12,10 C12.5522847,10 13,10.4477153 13,11 L13,14 C13,14.5522847 12.5522847,15 12,15 C11.4477153,15 11,14.5522847 11,14 L11,11 Z M4.30220303,7.81348009 C4.15160539,8.34483571 3.59877305,8.65350105 3.06741743,8.50290341 C2.53606181,8.35230578 2.22739647,7.79947343 2.3779941,7.26811781 C3.58765785,3.00004524 7.49852939,9.70899882e-16 12,0 C15.2951472,-7.20932916e-16 18.3218675,1.60650758 20.1826496,4.25027302 C20.5005263,4.70190653 20.392095,5.32571784 19.9404615,5.64359457 C19.488828,5.96147131 18.8650167,5.85304003 18.54714,5.40140652 C17.0570589,3.28432637 14.6373401,2 12,2 C8.39887586,2 5.26949879,4.4005577 4.30220303,7.81348009 Z"/>
</svg>

<svg xmlns="http://www.w3.org/2000/svg" width="24" height="24" viewBox="0 0 24 24"><path fill="#758CA3" fill-rule="evenodd" d="M19.7886 8.164c-.1262-.5376.2074-1.0758.745-1.202.5377-.1261 1.0759.2074 1.202.7451.1727.7354.2618 1.4922.2644 2.263V14c0 5.5228-4.4772 10-10 10-1.4822 0-2.9206-.3234-4.2353-.9388-.5002-.2342-.7158-.8295-.4817-1.3297.2342-.5001.8295-.7158 1.3297-.4817C9.6633 21.7417 10.8124 22 12 22c4.4183 0 8-3.5817 8-8V9.9733a8.024 8.024 0 0 0-.2114-1.8092zm-7.835-2.165a1.017 1.017 0 0 1-.0464.002 3.9737 3.9737 0 0 0-2.0049.5923c-.47.2902-1.086.1444-1.3762-.3255-.2901-.47-.1444-1.0861.3255-1.3762a5.9735 5.9735 0 0 1 3.0102-.89 1.0147 1.0147 0 0 1 .0691.0007A1.0147 1.0147 0 0 1 12 4c2.088 0 3.9927 1.076 5.083 2.8109.294.4676.1531 1.0849-.3145 1.3788-.4676.2939-1.0849.153-1.3788-.3146C14.6617 6.7168 13.393 6 12 6a1.017 1.017 0 0 1-.0464-.001zM5.2689 18.3253c.299.4644.165 1.0832-.2992 1.3822-.4643.2991-1.0832.1651-1.3822-.2992C2.5568 17.8082 2 15.9441 2 14v-2.8553c0-.5523.4477-1 1-1s1 .4477 1 1V14c0 1.557.4446 3.0457 1.2689 4.3254zM16 11.3464c0-.5524.4477-1 1-1s1 .4476 1 1V14c0 .9641-.2284 1.8976-.66 2.738-.2522.4912-.855.685-1.3463.4326-.4913-.2523-.685-.855-.4327-1.3464C15.8482 15.265 16 14.6445 16 14v-2.6537zm-2.8964 6.4997c.531-.152 1.0846.1552 1.2366.6862.152.531-.1553 1.0846-.6862 1.2366-.5014.1435-1.022.2214-1.5679.2304-1.623.0008-3.0891-.583-4.2045-1.6359-.4015-.3791-.4197-1.012-.0406-1.4136.3792-.4016 1.012-.4198 1.4136-.0407.7443.7027 1.7189 1.0907 2.8142 1.0903a3.998 3.998 0 0 0 1.0348-.1533zM8 13.9611c0 .5522-.4477 1-1 1s-1-.4478-1-1V10c0-.4197.0432-.8344.1284-1.2393.1136-.5405.6438-.8866 1.1843-.773.5404.1137.8865.6439.7729 1.1844A4.0209 4.0209 0 0 0 8 10v3.961zM11 11c0-.5523.4477-1 1-1s1 .4477 1 1v3c0 .5523-.4477 1-1 1s-1-.4477-1-1v-3zM4.3022 7.8135c-.1506.5313-.7034.84-1.2348.6894-.5313-.1506-.84-.7034-.6894-1.2348C3.5877 3.0001 7.4985 0 12 0c3.2951 0 6.3219 1.6065 8.1826 4.2503.318.4516.2095 1.0754-.2421 1.3933-.4517.3179-1.0755.2094-1.3934-.2422C17.0571 3.2844 14.6373 2 12 2 8.3989 2 5.2695 4.4006 4.3022 7.8135z"/></svg>
